icons/nuxtjs.svg

<svg width="24" height="24" viewBox="0 0 24 24" fill="none" xmlns="http://www.w3.org/2000/svg">
<path fill-rule="evenodd" clip-rule="evenodd" d="M10 4C10.3693 4 10.7086 4.20355 10.8824 4.52941L13.0281 8.55276L14.1195 6.5259C14.2939 6.20199 14.6321 6 15 6C15.3679 6 15.7061 6.20199 15.8805 6.5259L22.8805 19.5259C23.0473 19.8358 23.039 20.2106 22.8585 20.5128C22.678 20.815 22.352 21 22 21H2C1.64874 21 1.32323 20.8157 1.14251 20.5145C0.961784 20.2133 0.952347 19.8393 1.11765 19.5294L9.11765 4.52941C9.29144 4.20355 9.63069 4 10 4ZM9.67422 19H16.3333L13.0197 12.7869L9.67422 19ZM11.8894 10.6676L7.40271 19H3.66667L10 7.125L11.8894 10.6676ZM14.1585 10.6721L18.6 19H20.3258L15 9.10926L14.1585 10.6721Z" fill="black"/>
</svg>

<svg
  width="24"
  height="24"
  viewBox="0 0 24 24"
  xmlns="http://www.w3.org/2000/svg"
>
  <path
    fill-rule="evenodd"
    clip-rule="evenodd"
    d="M10 4a1 1 0 0 1 .882.53l2.146 4.023 1.091-2.027a1 1 0 0 1 1.761 0l7 13A1 1 0 0 1 22 21H2a1 1 0 0 1-.882-1.47l8-15A1 1 0 0 1 10 4zm-.326 15h6.66l-3.314-6.213L9.674 19zm2.215-8.332L7.403 19H3.667L10 7.125l1.89 3.543zm2.27.004L18.6 19h1.726L15 9.11l-.841 1.562z"
  />
</svg>
